X: 11195
T: Dunmore Lasses, The
R: reel
M: 4/4
K: Eminor
E3F G3A|Be{a/}ed Be{a/}ed|E3F G2BG|!slide!A2{c/}BA GE{A/}FD|
Ez EF G3A|Be{a/}ed e2ef|!slide!gzfd ed{c/}BG|Ac{c/}BA GE{A/}FD:|
Ez EF G3A|BE{A/}ED BE{A/}ED|Ez EFGABG|!slide!A2{c/}BA GE{A/}FD|
Ez EF G3A|Be{a/}ed e3f|!slide!gzfd ed{c/}BG|Ac{c/}BA GE{A/}Ez|
|:gfeg fedc|Be{a/}ed Be{a/}ed|g2eg fedB|AcBA GE{A/}ED|
g2eg fedc|Be{a/}ed e3f|!slide!gzfd ed{c/}BG|AcBA GE{A/}E2:|

